X:0753
T:Charles Street, Bath.
M:C|
L:1/8
Q:1/2=104
I: :: :|
Z:Jack Campin * www.campin.me.uk * 2009
K:G
gfgf gdBd|efgf Te2d2|gdBd ecAc|BdDF G2G2:|
DAFA DBGB|DABc TB2A2|gdBd ecAc BdDF G2G2:|

